frontend/public/assets/material-icons/minecraft.svg

<svg xmlns="http://www.w3.org/2000/svg" viewBox="0 0 32 32"><path fill="#4caf50" d="M4 4v24h24V4Zm20 10h-6v2h4v8h-4v-4h-4v4h-4v-8h4v-2H8V8h6v6h4V8h6Z"/></svg>

<svg xmlns="http://www.w3.org/2000/svg" viewBox="0 0 32 32">
  <path d="M4,4V28H28V4ZM24,14H18v2h4v8H18V20H14v4H10V16h4V14H8V8h6v6h4V8h6Z" style="fill: #4caf50"/>
</svg>
